!!! OTL: Berkowitz489
!!! Chapter: 1
!!! Section: IV
!!! Page: 122
!!! Mode: 
!!! Encoder: DJB
**kern
*staff1
*I"Piano
=1-
*clefF4
*k[f#c#g#]
*b:
*M7/8
8BB\L
8F#\
8F#\J
8A\L
16G#\K
8E\
16G#\K
8F#\J
=2
8BB\L
8D\
8F#\J
8E/L
16C#/K
8AA/
16C#/K
8BB/J
=3
8BB\L
8F#\
8F#\J
8A\L
16G#\K
8E\
16G#\K
8F#\J
=4
8BB\L
8D\
8F#\J
8E/L
16C#/K
8AA/
16C#/K
8BB/J
=5
8F#\L
8A\
8F#\J
8.B\L
16A\Jk
8G#\L
8F#\J
=6
8E\L
8F#\
8G#\J
8F#\L
16E\K
8D\
16E\K
8F#\J
=7
!!linebreak:original
8F#\L
8B\
8F#\J
8.B\L
16A\Jk
8G#\L
8F#\J
=8
8.A\L
16G#\K
8F#\J
8E\L
8D\J
8C#/L
8AA/J
=9
8BB\L
8F#\
8F#\J
8A\L
16G#\K
8E\
16G#\K
8F#\J
=10
8BB\L
8D\
8F#\J
8E/L
16C#/K
8AA/
16C#/K
[8BB/J
=11
16BB/LL]
16C#/
16AA/
16C#/J
8BB/J
16C#/LK
8AA/
16C#/Jk
8BB/L
8BB/J
=12
[4.B\
2B\]
==
*-
